X:180
T:The mason's apron
R:Reel
B:Roche 1 n153
B:Kerr's First p23
B:O'Neill's 1343
S:My arrangement from various sources
Z:Transcription, arrangement, chords:Mike Long
M:C|
L:1/8
K:A
(3(efg)|\
"A"aA~A2 cBAF|EFAB cABc|"Bm"dB~B2 dcBA|"E"GABc defg|\
"A"aA~A2 cBAF|
EFAB cABc|"D"dcde fefa|"E"(3(AAA) cB "A"A2:|\
|:ed|\
"A"(3(cBA) eA fAeA|(3(cBA) eA fedc|
"Bm"dBfB gBfB|"E"dBfB gfed|\
"A"(3(cBA) eA fAeA|(3(cBA) eA fedc|"D"dcde fefa|"E"(3(AAA) cB "A"A2:|
